src/components/00-materials/images-raw/Phone.svg

<svg width="96" height="96" viewBox="0 0 96 96" fill="none" xmlns="http://www.w3.org/2000/svg">
<path d="M22.2 19.47L24.32 17.35C24.8825 16.7882 25.645 16.4727 26.44 16.4727C27.235 16.4727 27.9975 16.7882 28.56 17.35L39.88 28.67C40.4418 29.2325 40.7573 29.995 40.7573 30.79C40.7573 31.585 40.4418 32.3475 39.88 32.91L37.76 35L22.2 19.47ZM59 56.24L61.12 54.12C61.6825 53.5582 62.445 53.2427 63.24 53.2427C64.035 53.2427 64.7975 53.5582 65.36 54.12L76.65 65.44C77.2118 66.0025 77.5273 66.765 77.5273 67.56C77.5273 68.355 77.2118 69.1175 76.65 69.68L74.53 71.8L59 56.24ZM59 56.26C57.9994 57.3744 57.2531 58.693 56.8128 60.1244C56.3725 61.5559 56.2487 63.066 56.45 64.55C49.6381 63.5671 43.3272 60.406 38.4606 55.5394C33.594 50.6728 30.433 44.3619 29.45 37.55C30.934 37.7513 32.4441 37.6275 33.8756 37.1872C35.307 36.7469 36.6256 36.0006 37.74 35L22.22 19.49C20.4539 21.4496 19.5087 24.013 19.58 26.65C18.5934 33.15 19.1484 39.7908 21.2002 46.0369C23.2519 52.283 26.743 57.9593 31.3919 62.6081C36.0407 67.257 41.717 70.7481 47.9631 72.7998C54.2092 74.8516 60.85 75.4066 67.35 74.42C69.987 74.4913 72.5505 73.5461 74.51 71.78L59 56.26Z" stroke="#00008F" stroke-width="2" stroke-linecap="round" stroke-linejoin="round"/>
</svg>

<svg width="96" height="96" viewBox="0 0 96 96" fill="none" xmlns="http://www.w3.org/2000/svg"><path d="M22.2 19.47l2.12-2.12a3 3 0 014.24 0l11.32 11.32a3 3 0 010 4.24L37.76 35 22.2 19.47zM59 56.24l2.12-2.12a3 3 0 014.24 0l11.29 11.32a3 3 0 010 4.24l-2.12 2.12L59 56.24zm0 .02a10.33 10.33 0 00-2.55 8.29 31.88 31.88 0 01-27-27A10.33 10.33 0 0037.74 35L22.22 19.49a10.28 10.28 0 00-2.64 7.16 41.949 41.949 0 0047.77 47.77 10.28 10.28 0 007.16-2.64L59 56.26z" stroke="#00008F" stroke-width="2" stroke-linecap="round" stroke-linejoin="round"/></svg>
